X: 1
T: Bulgar, Frailach
O: Kammen 1 #17
B: Kammen 1 #17
R: jig, bulgar
Z: John Chambers <jc:trillian.mit.edu>
M: 6/8
L: 1/8
K: F
CF2A \
|| "F"[c2A2]z "C7"[B2G2]z \
| "F"[A2F2][GE] "(C)"[A2F2]{c}[BE] \
| "F"[A3-F3-] "C7"[A2F2][EG] \
| "F"[AF][GE]F F2F \
| "C7"F2[E-G-] [E2G2]F \
| [c3E3] [BE3]AB \
| "F"[A6-F6-] \
| [A2F2][AF] "(C7)"[B2G2][=B^G] |
| "F"[c3-A3-] [c2A2][d_B] \
| "Bb"[_e2c2][dB] [c2A2]B \
| "C7"A2G c2B \
| "A7"A2G "Dm"F3 \
| "Gm"F2{A}G- "(Dm)"G2F \
| "A7"AGF FED \
| "Dm"D6- \
| D2d e2f |
| "Gm"gag "Dm"fef \
| "Gm"gag "Dm"fef \
| "Gm"gag "Dm"f3- \
| f2d e2f \
| "Gm"gag "Dm"fef \
| "Gm"gag "Dm"fef \
| [a2f2][^ge] [a3-f3-] \
| [a2f]d e2f |
| "Gm"gag "Dm"fef \
| "Gm"gag "Dm"fef \
| "Gm"gag "Dm"f3- \
| f2d e2f \
| "Gm"[g3-d3-] [g2d2][^gd] \
| "A7"[a^c]gf fed \
| "Dm"d6- | d2 |]
